X:1
T:020 - Amor Perene
T:Letra: Guilherme Luiz dos Santos Ferreira (1850-1934)
T:Música: Melodia Francesa (do Cantiques Du Messager)
M:4/4
L:1/4
K:C
V:1
G | "C"cE"F"FA | "C"G3E |"Dm"FD"G7"GF | "C"E2CG | c"C7"E"F"FA | "C"G3G | "D7"^FGBA | "G"G3G | GABc | d3 c | Bcfe | e2 d G | GABc | d3 c | Bcfe | e2 d G | "C"c z2 e | "F"A z2 f | "Dm"ed"C/G"c"G"B | "C"c3 |]
w: 1.~A-ma-vas-me, Se-nhor, não ten-doa luz a-in-da Sur-gin-do lá nos céus, ao man-do Cri-a-dor; Nem mes-moo sol, naau-ro-raes-plen-do-ro-sae lin-da, À ter-ra da-va for-ça fe-cun-dan-te,in-fin-da. Meu Deus, quea-mor! Meu Deus, quean-ti-goa-mor!  
w: 2.~A-ma-vas-me, Se-nhor, no tem-poem quei-mo-la-do Foi nu-ma cruz san-gren-tao mei-go Sal-va-dor, Le-van-do so-bre Si, sim, to-doo meu pe-ca-do, O San-to de Is-rael, o teu Cor-dei-roa-ma-do. Meu Deus, quea-mor! Meu Deus, quei-men-soa-mor!  
w: 3.~A-ma-vas-me, Se-nhor! No fun-do de meu pei-to Bri-lhou a do-ce luz do meu Con-so-la-dor, E com pro-mes-sas mil de teu a-mor per-fei-to, Nas-ceuem mim a fé em que ho-je me de-lei-to. Meu Deus, quea-mor! Meu Deus, és to-doa-mor!  
w: 4.~A mim sem-pre hásdea-mar! Pois que ja-mais oin-fer-no Eo mun-do po-de-rão ao teu que-rer seo-por, Ao teu de-cre-to,ó Rei, ao teu de-cre-toe-ter-no, Ao teu a-mor, ó Pai, ao teu a-mor su-per-no! Meu Deus, quea-mor! És sem-pre, sem-prea-mor!          	
W: 
W: 
W: 1. Amavas-me, Senhor, 
W: não tendo a luz ainda
W: Surgindo lá nos céus, ao mando Criador;
W: Nem mesmo o sol, 
W: na aurora esplendorosa e linda,
W: À terra dava força fecundante, infinda.
W: Meu Deus, que amor!
W: Meu Deus, que antigo amor!
W: 
W: 2. Amavas-me, Senhor, 
W: no tempo em que imolado
W: Foi numa cruz sangrenta o meigo Salvador,
W: Levando sobre Si, sim, todo o meu pecado,
W: O Santo de Israel, o teu Cordeiro amado.
W: Meu Deus, que amor!
W: Meu Deus, que imenso amor!
W: 
W: 
W: 
W: 3. Amavas-me, Senhor! 
W: No fundo de meu peito
W: Brilhou a doce luz do meu Consolador,
W: E com promessas mil de teu amor perfeito,
W: Nasceu em mim a fé 
W: em que hoje me deleito.
W: Meu Deus, que amor!
W: Meu Deus, és todo amor!
W: 
W: 4. A mim sempre hás de amar! 
W: Pois que jamais o inferno
W: E o mundo poderão ao teu querer se opor,
W: Ao teu decreto, ó Rei, 
W: ao teu decreto eterno,
W: Ao teu amor, ó Pai, ao teu amor superno!
W: Meu Deus, que amor!
W: És sempre, sempre amor!
W:         
W:





%wordsfont Times-Roman 13.0
%vocalfont Times-Roman 13.0
